public/svgs/location.svg

<svg width="24" height="24" viewBox="0 0 24 24" fill="none" xmlns="http://www.w3.org/2000/svg">
<g id="Icon/Function/location">
<path id="Union" fill-rule="evenodd" clip-rule="evenodd" d="M12 1.19995C7.41597 1.19995 3.69995 4.91597 3.69995 9.49995C3.69995 13.0335 5.72265 16.3407 7.62855 18.6913C8.59378 19.8817 9.55708 20.8609 10.2788 21.5425C10.6401 21.8838 10.9422 22.1517 11.1554 22.3354C11.262 22.4273 11.3465 22.4983 11.4052 22.5469C11.4345 22.5712 11.4574 22.59 11.4734 22.603L11.4922 22.6182L11.4975 22.6225L11.4998 22.6243C11.792 22.8581 12.2075 22.8584 12.4997 22.6246L12 22C12.4997 22.6246 12.5005 22.624 12.5007 22.6239L12.5024 22.6225L12.5078 22.6182L12.5265 22.603C12.5425 22.59 12.5654 22.5712 12.5947 22.5469C12.6534 22.4983 12.7379 22.4273 12.8445 22.3354C13.0577 22.1517 13.3598 21.8838 13.7211 21.5425C14.4428 20.8609 15.4061 19.8817 16.3714 18.6913C18.2773 16.3407 20.3 13.0335 20.3 9.49995C20.3 4.91597 16.5839 1.19995 12 1.19995ZM12 22L11.4998 22.6243C11.5 22.6245 11.5002 22.6246 12 22ZM12.6225 20.3793C12.3833 20.6052 12.1725 20.7963 12 20.9488C11.8274 20.7963 11.6166 20.6052 11.3774 20.3793C10.6928 19.7328 9.78112 18.8057 8.87136 17.6836C7.02725 15.4092 5.29995 12.4664 5.29995 9.49995C5.29995 5.79963 8.29963 2.79995 12 2.79995C15.7003 2.79995 18.7 5.79963 18.7 9.49995C18.7 12.4664 16.9727 15.4092 15.1285 17.6836C14.2188 18.8057 13.3071 19.7328 12.6225 20.3793ZM12 5.69995C9.90127 5.69995 8.19995 7.40127 8.19995 9.49995C8.19995 11.5986 9.90127 13.3 12 13.3C14.0986 13.3 15.8 11.5986 15.8 9.49995C15.8 7.40127 14.0986 5.69995 12 5.69995ZM9.79995 9.49995C9.79995 8.28493 10.7849 7.29995 12 7.29995C13.215 7.29995 14.2 8.28493 14.2 9.49995C14.2 10.715 13.215 11.7 12 11.7C10.7849 11.7 9.79995 10.715 9.79995 9.49995Z" fill="black"/>
</g>
</svg>

<svg width="24" height="24" fill="none" xmlns="http://www.w3.org/2000/svg"><path fill-rule="evenodd" clip-rule="evenodd" d="M12 1.2a8.3 8.3 0 0 0-8.3 8.3c0 3.534 2.023 6.84 3.929 9.191a29.766 29.766 0 0 0 3.526 3.644 16.679 16.679 0 0 0 .318.268l.02.015.005.005.002.001a.8.8 0 0 0 1 0L12 22l.5.624.002-.002.006-.004.019-.015.068-.056.25-.212a29.778 29.778 0 0 0 3.527-3.644c1.905-2.35 3.928-5.658 3.928-9.191A8.3 8.3 0 0 0 12 1.2zM12 22l-.5.624L12 22zm.623-1.62c-.24.225-.45.416-.623.569a28.15 28.15 0 0 1-3.129-3.265C7.027 15.409 5.3 12.466 5.3 9.5a6.7 6.7 0 1 1 13.4 0c0 2.966-1.727 5.91-3.571 8.184a28.142 28.142 0 0 1-2.506 2.695zM12 5.7a3.8 3.8 0 1 0 0 7.6 3.8 3.8 0 0 0 0-7.6zM9.8 9.5a2.2 2.2 0 1 1 4.4 0 2.2 2.2 0 0 1-4.4 0z" fill="current"/></svg>
